Adwaita++/actions/symbolic/edit-find-replace-symbolic.svg

<svg height="16" width="16" xmlns="http://www.w3.org/2000/svg">
  <g fill="#474747">
    <path d="m5.5 0c-3.025 0-5.5 2.478-5.5 5.5 0 1.999 1.09 3.75 2.7 4.71l1.363-1.523a3.468 3.468 0 0 1 -2.063-3.187c0-1.941 1.556-3.5 3.5-3.5a3.48 3.48 0 0 1 3.156 1.969l1.469-1.469a5.54 5.54 0 0 0 -4.625-2.5zm4.906 8.969-1.406 1.406 3.281 3.313c.368.376 1.046.384 1.422.015.377-.368.384-1.045.016-1.422z"/>
    <path d="m3.002 11 8.998-9c1 0 2 1 2 2l-9 9h-2z" fill-rule="evenodd"/>
    <path d="m13 1c1 0 2 1 2 2l1-1c0-1-.752-2-2-2z"/>
  </g>
</svg>

<svg xmlns="http://www.w3.org/2000/svg" width="16" height="16">
    <g fill="#474747">
        <path d="M5.5 0C2.475 0 0 2.478 0 5.5c0 1.999 1.09 3.75 2.7 4.71l1.363-1.523A3.468 3.468 0 0 1 2 5.5C2 3.559 3.556 2 5.5 2a3.48 3.48 0 0 1 3.156 1.969L10.125 2.5A5.54 5.54 0 0 0 5.5 0zm4.906 8.969L9 10.375l3.281 3.313c.368.376 1.046.384 1.422.015.377-.368.384-1.045.016-1.422z" style="line-height:normal;-inkscape-font-specification:Sans;text-indent:0;text-align:start;text-decoration-line:none;text-transform:none;marker:none" color="#000" font-weight="400" font-family="Sans" overflow="visible"/>
        <path d="M3.002 11L12 2c1 0 2 1 2 2l-9 9H3z" fill-rule="evenodd"/>
        <path d="M13 1c1 0 2 1 2 2l1-1c0-1-.752-2-2-2z" style="marker:none" overflow="visible"/>
    </g>
</svg>
